X: 340
M:C
L:1/8
K:A
!f!c | A,A-Ac/2d/2 c<A (c2{/e}) | e<e f/2e/2d/2c/2 d<BB>c | A,A-Ac/2d/2 e<Ac>e | (3fga (3efd c<AA :|
E | !p!CE-EF/2G/2 A<E A2 | F<BB<c d>c{/c}BA | (3cde (3fga f>e{/e}dc | (3Bcd (3efd c<AA<c |


